img/svgicons/twitter.svg

<svg width="23" height="20" viewBox="0 0 23 20" fill="none" xmlns="http://www.w3.org/2000/svg">
<path d="M22.9912 1.95021C22.9913 1.77357 22.9447 1.60007 22.8559 1.44735C22.7671 1.29464 22.6395 1.16817 22.486 1.08084C22.3324 0.993502 22.1585 0.948416 21.9819 0.95017C21.8053 0.951925 21.6323 1.00046 21.4805 1.09083C20.8952 1.43921 20.265 1.70601 19.6075 1.88383C18.6685 1.07806 17.4708 0.637129 16.2335 0.641636C14.8761 0.643198 13.5724 1.17223 12.5977 2.11702C11.623 3.06181 11.0537 4.3484 11.0099 5.70512C8.33384 5.27838 5.90849 3.88164 4.19631 1.78126C4.09315 1.65609 3.9614 1.55757 3.81217 1.494C3.66295 1.43043 3.50062 1.40368 3.33889 1.41601C3.17725 1.42932 3.02128 1.4818 2.88448 1.56892C2.74768 1.65603 2.63416 1.77516 2.55373 1.91601C2.14126 2.63582 1.90436 3.44276 1.86228 4.27131C1.8202 5.09986 1.97412 5.92666 2.31154 6.68456L2.30959 6.68651C2.15794 6.77991 2.03278 6.91066 1.94609 7.06625C1.85941 7.22185 1.81409 7.39708 1.81447 7.57519C1.81263 7.72211 1.82145 7.86898 1.84084 8.01464C1.94298 9.2729 2.50062 10.4507 3.4092 11.3271C3.34756 11.4446 3.30994 11.5731 3.29854 11.7052C3.28714 11.8373 3.30218 11.9704 3.34279 12.0967C3.7389 13.3308 4.58129 14.3727 5.7051 15.0185C4.56334 15.46 3.33052 15.614 2.11525 15.4668C1.89032 15.4386 1.66248 15.4876 1.4691 15.6059C1.27572 15.7242 1.12828 15.9047 1.05097 16.1178C0.973654 16.3309 0.97106 16.5639 1.04361 16.7787C1.11616 16.9935 1.25955 17.1772 1.45025 17.2998C3.54034 18.646 5.97393 19.3617 8.46002 19.3613C11.2793 19.393 14.03 18.4921 16.2843 16.7988C18.5385 15.1054 20.17 12.7145 20.9248 9.99801C21.2779 8.81464 21.4582 7.58648 21.46 6.35157C21.46 6.28614 21.46 6.21876 21.459 6.15138C21.9811 5.58831 22.3856 4.92668 22.6487 4.20527C22.9118 3.48387 23.0283 2.7172 22.9912 1.95021ZM19.6846 5.16212C19.5194 5.35746 19.4358 5.60891 19.4512 5.86427C19.461 6.02927 19.46 6.19527 19.46 6.35157C19.4579 7.39511 19.305 8.43287 19.0059 9.43263C18.3894 11.744 17.015 13.7817 15.103 15.2192C13.1909 16.6568 10.8517 17.4111 8.46002 17.3613C7.6009 17.3616 6.74474 17.2606 5.90924 17.0606C6.97465 16.7172 7.97083 16.1879 8.85162 15.4971C9.01385 15.3693 9.13257 15.1945 9.19151 14.9967C9.25044 14.7988 9.2467 14.5875 9.18079 14.3918C9.11489 14.1961 8.99005 14.0257 8.8234 13.9038C8.65675 13.7819 8.45647 13.7145 8.25002 13.7109C7.41885 13.698 6.62515 13.363 6.03615 12.7764C6.18557 12.7481 6.33401 12.7129 6.48147 12.6709C6.69748 12.6094 6.88651 12.477 7.01813 12.295C7.14975 12.1131 7.21629 11.8921 7.20704 11.6677C7.1978 11.4433 7.1133 11.2285 6.96715 11.058C6.82101 10.8874 6.62173 10.7711 6.40139 10.7275C5.91893 10.6323 5.46494 10.427 5.0747 10.1277C4.68447 9.82845 4.36852 9.44321 4.15139 9.00196C4.33212 9.02662 4.514 9.04194 4.69631 9.04786C4.91289 9.05113 5.1249 8.98543 5.30169 8.86026C5.47847 8.73509 5.61086 8.55694 5.67971 8.35157C5.74569 8.14433 5.74229 7.92123 5.67004 7.7161C5.59778 7.51096 5.46061 7.33499 5.27932 7.21485C4.83947 6.92182 4.47916 6.52427 4.23068 6.0578C3.98219 5.59134 3.85328 5.07052 3.85549 4.54201C3.85549 4.47561 3.85744 4.4092 3.86135 4.34377C6.10261 6.43402 9.00967 7.66621 12.0703 7.82326C12.2248 7.82934 12.3787 7.80024 12.5203 7.73816C12.6619 7.67607 12.7875 7.58262 12.8877 7.46486C12.9869 7.34596 13.0571 7.20566 13.0929 7.05501C13.1286 6.90437 13.1289 6.74748 13.0937 6.5967C13.0366 6.35806 13.0074 6.11357 13.0068 5.86818C13.0077 5.01271 13.348 4.19254 13.9529 3.58764C14.5578 2.98274 15.378 2.64251 16.2334 2.64161C16.6736 2.64043 17.1092 2.7305 17.5127 2.90615C17.9163 3.0818 18.2791 3.3392 18.5781 3.66212C18.6935 3.7862 18.8386 3.87871 18.9998 3.93085C19.161 3.98299 19.3329 3.99303 19.499 3.96001C19.9098 3.88006 20.3147 3.7724 20.7109 3.63775C20.4407 4.19072 20.0953 4.70369 19.6846 5.16212Z" fill="#F5EFDB"/>
</svg>

<svg width="23" height="20" fill="none" xmlns="http://www.w3.org/2000/svg"><path d="M22.991 1.95a1 1 0 0 0-1.51-.86 7.48 7.48 0 0 1-1.873.794A5.152 5.152 0 0 0 16.233.642a5.233 5.233 0 0 0-5.223 5.063 11.032 11.032 0 0 1-6.814-3.924 1.011 1.011 0 0 0-.857-.365.998.998 0 0 0-.785.5 5.275 5.275 0 0 0-.242 4.769l-.002.002a1.041 1.041 0 0 0-.496.888c-.001.147.007.294.027.44a5.185 5.185 0 0 0 1.568 3.312.999.999 0 0 0-.066.77 5.204 5.204 0 0 0 2.362 2.921 7.465 7.465 0 0 1-3.59.449A1 1 0 0 0 1.45 17.3a12.942 12.942 0 0 0 7.01 2.061 12.788 12.788 0 0 0 12.465-9.363c.353-1.183.533-2.412.535-3.646l-.001-.2a5.77 5.77 0 0 0 1.532-4.202Zm-3.306 3.212a.995.995 0 0 0-.234.702c.01.165.009.331.009.488a10.826 10.826 0 0 1-.454 3.08 10.685 10.685 0 0 1-10.546 7.93c-.86 0-1.715-.101-2.55-.301a9.48 9.48 0 0 0 2.942-1.564 1.001 1.001 0 0 0-.602-1.786 3.208 3.208 0 0 1-2.214-.935c.15-.028.298-.063.445-.105a1 1 0 0 0-.08-1.944 3.197 3.197 0 0 1-2.25-1.725c.181.025.363.04.545.046a1.021 1.021 0 0 0 .984-.696 1 1 0 0 0-.4-1.137A3.196 3.196 0 0 1 3.86 4.344a13.014 13.014 0 0 0 8.21 3.48 1.02 1.02 0 0 0 .817-.36 1 1 0 0 0 .206-.867 3.164 3.164 0 0 1-.087-.729 3.23 3.23 0 0 1 4.506-2.962c.403.176.766.433 1.065.756a.993.993 0 0 0 .921.298 9.27 9.27 0 0 0 1.212-.322 6.679 6.679 0 0 1-1.026 1.524Z" fill="#F5EFDB"/></svg>
